Shared/Textures/Items/water.svg

<?xml version="1.0" encoding="UTF-8" standalone="no"?>
<svg
   width="64"
   height="64"
   version="1.1"
   id="svg24"
   sodipodi:docname="water.svg"
   inkscape:version="1.2 (dc2aedaf03, 2022-05-15)"
   xmlns:inkscape="http://www.inkscape.org/namespaces/inkscape"
   xmlns:sodipodi="http://sodipodi.sourceforge.net/DTD/sodipodi-0.dtd"
   xmlns="http://www.w3.org/2000/svg"
   xmlns:svg="http://www.w3.org/2000/svg">
  <sodipodi:namedview
     id="namedview26"
     pagecolor="#505050"
     bordercolor="#eeeeee"
     borderopacity="1"
     inkscape:showpageshadow="0"
     inkscape:pageopacity="0"
     inkscape:pagecheckerboard="0"
     inkscape:deskcolor="#505050"
     showgrid="false"
     inkscape:zoom="6.428795"
     inkscape:cx="5.0553798"
     inkscape:cy="52.88705"
     inkscape:window-width="2560"
     inkscape:window-height="1417"
     inkscape:window-x="-8"
     inkscape:window-y="-8"
     inkscape:window-maximized="1"
     inkscape:current-layer="svg24" />
  <defs
     id="defs12">
    <linearGradient
       x1="-4995.0923"
       y1="327.92279"
       x2="-4615.4121"
       y2="345.55463"
       id="imagebot_4"
       gradientTransform="scale(0.57548491,1.737665)"
       gradientUnits="userSpaceOnUse">
      <stop
         stop-color="#ffffff"
         offset="0"
         id="imagebot_12" />
      <stop
         stop-color="#ffffff"
         stop-opacity="0"
         offset="1"
         id="imagebot_11" />
    </linearGradient>
    <linearGradient
       id="imagebot_13"
       y2="633.02332"
       x2="-3577.1069"
       y1="181.03172"
       x1="-4029.0986"
       gradientTransform="scale(0.70768039,1.4130673)"
       gradientUnits="userSpaceOnUse">
      <stop
         stop-color="rgb(47.843098%,100.0%,73.725494%)"
         offset="0.0%"
         id="stop5" />
      <stop
         stop-color="rgb(36.47055%,66.2745%,96.66665%)"
         offset="43.9834%"
         id="stop7" />
      <stop
         stop-color="rgb(25.098%,93.3333%,58.8235%)"
         offset="100.0%"
         id="stop9" />
    </linearGradient>
  </defs>
  <title
     id="title14" />
  <g
     label="Ebene 1"
     id="imagebot_2"
     transform="matrix(0.1002044,0,0,0.1002044,16.000013,0)">
    <path
       transform="translate(2851.3139,-255.81)"
       label="Ebene 1"
       fill="#87bafb"
       d="m -2693,255.81 c -19.751,90.86401 -49.6941,179.50998 -89.0859,263.73999 -19.854,42.453 -42.1922,84.02002 -56.1331,128.77002 -13.9409,44.74499 -19.02,93.85199 -3.8584,138.20001 13,38.02197 40.9099,70.72498 76.4209,89.52899 35.511,18.80401 78.251,23.50897 117,12.87 38.749,-10.64002 73.0962,-36.51404 94.0051,-70.82801 20.909,-34.31397 28.156,-76.70599 19.822,-116.02002 -7.5883,-35.794 -27.2341,-67.87201 -49.186,-97.14398 -21.9519,-29.27301 -46.572,-56.61102 -66.299,-87.427 -48.9959,-76.539 -64.8189,-173.54001 -42.6861,-261.69"
       id="imagebot_7" />
    <path
       transform="translate(2851.3139,-255.81)"
       label="Ebene 1"
       fill="url(#imagebot_13)"
       d="m -2693,255.81 c -19.751,90.86401 -49.6941,179.50998 -89.0859,263.73999 -19.854,42.453 -42.1922,84.02002 -56.1331,128.77002 -13.9409,44.74499 -19.02,93.85199 -3.8584,138.20001 13,38.02197 40.9099,70.72498 76.4209,89.52899 35.511,18.80401 78.251,23.50897 117,12.87 38.749,-10.64002 73.0962,-36.51404 94.0051,-70.82801 20.909,-34.31397 28.156,-76.70599 19.822,-116.02002 -7.5883,-35.794 -27.2341,-67.87201 -49.186,-97.14398 -21.9519,-29.27301 -46.572,-56.61102 -66.299,-87.427 -48.9959,-76.539 -64.8189,-173.54001 -42.6861,-261.69"
       id="imagebot_5"
       style="fill:url(#imagebot_13)" />
    <path
       transform="translate(2851.3139,-255.81)"
       label="Ebene 1"
       fill="url(#imagebot_4)"
       d="m -2716.5,394.92001 c -23.8369,73.03501 -50.9541,144.99997 -81.24,215.60001 -9.6096,22.40301 -19.571,44.75897 -26.1609,68.22803 -6.5898,23.46899 -9.726,48.30999 -5.4187,72.30298 2.322,12.93499 6.8191,25.53198 13.7258,36.71301 6.9068,11.18097 16.2571,20.92096 27.4642,27.78497 11.208,6.86383 24.2868,10.78699 37.4279,10.64703 13.1419,-0.14062 26.294,-4.43011 36.6509,-12.52001 10.562,-8.2508 17.9461,-20.18299 21.854,-33.00403 3.9082,-12.82001 4.4773,-26.50196 2.9446,-39.81696 -3.0649,-26.63 -14.2329,-51.52203 -22.9609,-76.867 -29.6971,-86.23999 -31.222,-181.93 -4.2876,-269.07004"
       id="imagebot_3"
       style="fill:url(#imagebot_4)" />
    <title
       id="title19">Ebene 1</title>
  </g>
  <metadata
     id="metadata22">image/svg+xmlOpenclipartDrop2009-06-23T19:00:38A simple all-purpose water drophttps://openclipart.org/detail/26775/drop-by-raemiraemicolourdroprainsymbolwater</metadata>
</svg>

<svg width="320" height="639" xmlns="http://www.w3.org/2000/svg">
 <defs>
  <linearGradient x1="-0.30316" y1="0.40554" x2="1.2266" y2="0.47658" id="imagebot_4">
   <stop stop-color="#ffffff" offset="0" id="imagebot_12"/>
   <stop stop-color="#ffffff" stop-opacity="0" offset="1" id="imagebot_11"/>
  </linearGradient>
  <linearGradient id="imagebot_13" y2="1" x2="1" y1="0" x1="0">
   <stop stop-color="rgb(47.843098%,100.0%,73.725494%)" offset="0.0%"/>
   <stop stop-color="rgb(36.47055%,66.2745%,96.66665%)" offset="43.9834%"/>
   <stop stop-color="rgb(25.098%,93.3333%,58.8235%)" offset="100.0%"/>
  </linearGradient>
 </defs>
 <title/>
 <g label="Ebene 1" id="imagebot_2">
  <path transform="translate(0.013916 0) matrix(1 0 0 1 2851.3 -255.81)" label="Ebene 1" fill="#87bafb" d="M-2693,255.81C-2712.75098,346.67401 -2742.69409,435.31998 -2782.08594,519.54999C-2801.93994,562.00299 -2824.27808,603.57001 -2838.21899,648.32001C-2852.15991,693.065 -2857.23901,742.172 -2842.07739,786.52002C-2829.07739,824.54199 -2801.16748,857.245 -2765.65649,876.04901S-2687.40552,899.55798 -2648.65649,888.91901C-2609.90747,878.27899 -2575.5603,852.40497 -2554.65137,818.091S-2526.49536,741.38501 -2534.82935,702.07098C-2542.41772,666.27698 -2562.06348,634.19897 -2584.01538,604.927C-2605.96729,575.65399 -2630.5874,548.31598 -2650.31445,517.5C-2699.3103,440.961 -2715.1333,343.95999 -2693.00049,255.81" id="imagebot_7"/>
  <path transform="translate(0.013916 0) matrix(1 0 0 1 2851.3 -255.81)" label="Ebene 1" fill="url(#imagebot_13)" d="M-2693,255.81C-2712.75098,346.67401 -2742.69409,435.31998 -2782.08594,519.54999C-2801.93994,562.00299 -2824.27808,603.57001 -2838.21899,648.32001C-2852.15991,693.065 -2857.23901,742.172 -2842.07739,786.52002C-2829.07739,824.54199 -2801.16748,857.245 -2765.65649,876.04901S-2687.40552,899.55798 -2648.65649,888.91901C-2609.90747,878.27899 -2575.5603,852.40497 -2554.65137,818.091S-2526.49536,741.38501 -2534.82935,702.07098C-2542.41772,666.27698 -2562.06348,634.19897 -2584.01538,604.927C-2605.96729,575.65399 -2630.5874,548.31598 -2650.31445,517.5C-2699.3103,440.961 -2715.1333,343.95999 -2693.00049,255.81" id="imagebot_5"/>
  <path transform="translate(0.013916 0) matrix(1 0 0 1 2851.3 -255.81)" label="Ebene 1" fill="url(#imagebot_4)" d="M-2716.5,394.92001C-2740.33691,467.95502 -2767.4541,539.91998 -2797.73999,610.52002C-2807.34961,632.92303 -2817.31104,655.27899 -2823.90088,678.74805C-2830.49072,702.21704 -2833.62695,727.05804 -2829.31958,751.05103C-2826.99756,763.98602 -2822.50049,776.58301 -2815.59375,787.76404C-2808.68701,798.94501 -2799.33667,808.685 -2788.12964,815.54901C-2776.92163,822.41284 -2763.84277,826.336 -2750.70166,826.19604C-2737.55981,826.05542 -2724.40771,821.76593 -2714.05078,813.67603C-2703.48877,805.42523 -2696.10474,793.49304 -2692.19678,780.672C-2688.28857,767.85199 -2687.71948,754.17004 -2689.2522,740.85504C-2692.31714,714.22504 -2703.48511,689.33301 -2712.21313,663.98804C-2741.91016,577.74805 -2743.43506,482.05804 -2716.50073,394.918" id="imagebot_3"/>
  <title>Ebene 1</title>
 </g>
 <metadata>image/svg+xmlOpenclipartDrop2009-06-23T19:00:38A simple all-purpose water drophttps://openclipart.org/detail/26775/drop-by-raemiraemicolourdroprainsymbolwater</metadata>
</svg>
